X: 27023
T: Miss Gordon Of Liverpool
R: jig
M: 6/8
K: Fmajor
|:~F3 FAc|dcA F2F|EGG GAF|(4EEEE CDE|
(4FFFF FAA|cde f2c|dfd ege|1 ~f3 fcA:|2 ~f3 efg||
|:afd bge|a2f c2A|dgg g2f|
[1ede cde|afd bge|fcA F2C|D2F FGE|FGF Ffg:|
[2 ede c2 ^c|dBf cAf|cAF ~C3|D2F FGE|FGF FAG||

